usr/share/icons/biglinux-icons-material/symbolic/apps/multimedia-video-player-symbolic.svg

<svg width="16" height="16" version="1.1" viewBox="0 0 16 16" xmlns="http://www.w3.org/2000/svg">
 <defs>
  <style id="current-color-scheme" type="text/css">.ColorScheme-Text { color:#363636; }</style>
 </defs>
 <path d="m2 1c-1.108 0-2 0.892-2 2v9c0 1.108 0.892 2 2 2h12c1.108 0 2-0.892 2-2v-9c0-1.108-0.892-2-2-2h-12zm0 1h1v1h-2c0-0.554 0.446-1 1-1zm2 0h8v5h-8v-5zm9 0h1c0.554 0 1 0.446 1 1h-2v-1zm-12 2h2v1h-2v-1zm12 0h2v1h-2v-1zm-12 2h2v1h-2v-1zm12 0h2v1h-2v-1zm-12 2h2v1h-2v-1zm3 0h8v5h-8v-5zm9 0h2v1h-2v-1zm-12 2h2v1h-2v-1zm12 0h2v1h-2v-1zm-12 2h2v1h-1c-0.554 0-1-0.446-1-1zm12 0h2c0 0.554-0.446 1-1 1h-1v-1z" style="fill:currentColor" class="ColorScheme-Text"/>
</svg>

<svg xmlns="http://www.w3.org/2000/svg" width="16" height="16"><path d="M2 1C.892 1 0 1.892 0 3v9c0 1.108.892 2 2 2h12c1.108 0 2-.892 2-2V3c0-1.108-.892-2-2-2H2zm0 1h1v1H1c0-.554.446-1 1-1zm2 0h8v5H4V2zm9 0h1c.554 0 1 .446 1 1h-2V2zM1 4h2v1H1V4zm12 0h2v1h-2V4zM1 6h2v1H1V6zm12 0h2v1h-2V6zM1 8h2v1H1V8zm3 0h8v5H4V8zm9 0h2v1h-2V8zM1 10h2v1H1v-1zm12 0h2v1h-2v-1zM1 12h2v1H2c-.554 0-1-.446-1-1zm12 0h2c0 .554-.446 1-1 1h-1v-1z" style="fill:currentColor;color:#dedede"/></svg>
